X: 1608
T: Midnight Dance, The
R:hornpipe
N:"Collected by J. O'Neill"
B:O'Neill's 1608
Z:Transcribed by Michael Hogan
M:2/4
L:1/16
K:G
D2 | GFGA GBdB | AGAB ABcB | ABcd efge | dgfe dcBA |
GFGA GBdB | AGAB ABcB | ABcd efge | dcBA "H"G2:|
|: B2 | Adcd Agfe | defg a2f2 | efge cABc | dfec A2F2 |
Adcd Agfe | defg a2f2 | efge cABc | d2f2 "D.C."d2 :||


